X: 65
T: Si Bheag Si Mhor
M: 3/4
L: 1/8
%Q: 225
C: Turlough O'Carolan
R: planxty
S: Pgmulvaney <Pgmulvaney:aol.COM>
Z: Probably the first tune composed by Carolan.  Si Bheag and Si Mhor are two
Z: hills in County Leitrim associated in the local folklore with two bands of
Z: fairies continually at war with each other.
N: In fact, I am told, Carolan most likely arranged, but did not compose, the
N: tune. I also believe the Faeries involved have since gone to the negotiations
N: table, and are now making a mint in the post-peace-process-tourist-trade.
N: PS: Sometimes referred to as "she begs for more". but never by me, of
N: course. Must be reference to Guiness...
K: D
de \
| f3ed2 | d3ed2 | B4 A2 | F4 A2 | BA Bc d2 | e4 de | f4 e2 | d4 f2 |
| B4 e2 | A4 d2 | F4 E2 | D4 f2 | B4 e2 | A4 dc | d4 d2 | d4 :|
|: de \
| f3 e d2 | ed ef a2 | b4a2 | f4 ed | e4 a2 | f4 e2 | d4 B2 | A4 BA |
| F4 E2 | D4 f2 | B4 e2 | A4 a2 | ba gf ed | e4 dc | d4 d2 | d4 :|

%%sep 1 1 500

